svgs/sharp-light/laptop-medical.svg

<svg xmlns="http://www.w3.org/2000/svg" viewBox="0 0 640 512"><!--! Font Awesome Pro 6.6.0 by @fontawesome - https://fontawesome.com License - https://fontawesome.com/license (Commercial License) Copyright 2024 Fonticons, Inc. --><path d="M96 64l448 0 0 288 32 0 0-288 0-32-32 0L96 32 64 32l0 32 0 288 32 0L96 64zM32 418.7l0-2.7 576 0 0 2.7L578.7 448 61.3 448 32 418.7zM608 384L32 384 0 384l0 32 0 16 48 48 544 0 48-48 0-16 0-32-32 0zM288 112l-16 0 0 16 0 48-48 0-16 0 0 16 0 64 0 16 16 0 48 0 0 48 0 16 16 0 64 0 16 0 0-16 0-48 48 0 16 0 0-16 0-64 0-16-16 0-48 0 0-48 0-16-16 0-64 0zm16 80l0-48 32 0 0 48 0 16 16 0 48 0 0 32-48 0-16 0 0 16 0 48-32 0 0-48 0-16-16 0-48 0 0-32 48 0 16 0 0-16z"/></svg>

<svg xmlns="http://www.w3.org/2000/svg" viewBox="0 0 640 512"><!--! Font Awesome Pro 6.4.2 by @fontawesome - https://fontawesome.com License - https://fontawesome.com/license (Commercial License) Copyright 2023 Fonticons, Inc. --><path d="M96 64H544V352h32V64 32H544 96 64V64 352H96V64zM32 418.7V416H608v2.7L578.7 448H61.3L32 418.7zM608 384H32 0v32 16l48 48H592l48-48V416 384H608zM288 112H272v16 48H224 208v16 64 16h16 48v48 16h16 64 16V320 272h48 16V256 192 176H416 368V128 112H352 288zm16 80V144h32v48 16h16 48v32H352 336v16 48H304V256 240H288 240V208h48 16V192z"/></svg>
